X: 34351
T: Return To Miltown, The
R: reel
M: 4/4
K: Ddorian
|:"Dm"D2 ADED AD|"C"CEED CEGE|"Dm"D2 ADEG AB|"Am"cAGF "C" EDCE|
"Dm"D2 ADED AD|"C"CEED CEGE|"F" F2 FD "C"E2 ED|CDEG "A7"cG EC:|
|:"D" d2de^f2ed^|"A " ^cde^f g2 ge|"D"^f2 fd "A "efed|"C"cAGE "C/E" ED D2|
"D" d2de^f2ed^|"A"^cde^f g2 ge|"D"^f2 fd "C" efed|"A5"cAGE "G"ED D2:|

